packages/tokens/icons/atom/size24Px.svg

<svg viewBox="0 0 24 24" fill="none" xmlns="http://www.w3.org/2000/svg" width="1em" height="1em"><path d="M15.5002 12C15.5002 14.7141 15.0593 17.1482 14.3644 18.8854C14.0164 19.7553 13.6146 20.4258 13.1939 20.8706C12.7743 21.3143 12.3707 21.5 12.0002 21.5C11.6297 21.5 11.2262 21.3143 10.8065 20.8706C10.3859 20.4258 9.98404 19.7553 9.63606 18.8854C8.9412 17.1482 8.50024 14.7141 8.50024 12C8.50024 9.2859 8.9412 6.85177 9.63606 5.11463C9.98404 4.24467 10.3859 3.5742 10.8065 3.1294C11.2262 2.68566 11.6297 2.5 12.0002 2.5C12.3707 2.5 12.7743 2.68566 13.1939 3.1294C13.6146 3.5742 14.0164 4.24467 14.3644 5.11463C15.0593 6.85177 15.5002 9.2859 15.5002 12Z" stroke="currentColor"/><path d="M13.7501 15.0311C11.3997 16.3881 9.07117 17.2233 7.21933 17.4901C6.29194 17.6237 5.51037 17.611 4.91484 17.4691C4.32072 17.3275 3.95816 17.0709 3.77291 16.75C3.58765 16.4291 3.54667 15.9868 3.72113 15.4015C3.89602 14.8148 4.27573 14.1316 4.85515 13.3952C6.01213 11.9249 7.89967 10.326 10.2501 8.9689C12.6006 7.61185 14.9291 6.77666 16.781 6.50986C17.7084 6.37624 18.4899 6.38902 19.0855 6.53091C19.6796 6.67247 20.0421 6.92913 20.2274 7.24999C20.4126 7.57085 20.4536 8.01317 20.2792 8.59847C20.1043 9.18516 19.7246 9.86841 19.1451 10.6048C17.9882 12.0751 16.1006 13.674 13.7501 15.0311Z" stroke="currentColor"/><path d="M9.89214 14.9675C12.1154 16.5243 14.3622 17.5592 16.1838 17.9864C17.096 18.2003 17.8757 18.2557 18.4813 18.1663C19.0855 18.077 19.4691 17.853 19.6816 17.5495C19.8941 17.246 19.9735 16.8089 19.8507 16.2106C19.7276 15.6109 19.4089 14.8972 18.8959 14.1131C17.8714 12.5476 16.1304 10.7902 13.9072 9.23344C11.6839 7.6767 9.43707 6.64175 7.61553 6.21456C6.70331 6.00062 5.9236 5.94524 5.31797 6.03469C4.71377 6.12392 4.33022 6.348 4.11771 6.6515C3.9052 6.955 3.82582 7.39206 3.94861 7.99034C4.07169 8.59004 4.39041 9.30378 4.90345 10.0878C5.92788 11.6534 7.66888 13.4108 9.89214 14.9675Z" stroke="currentColor"/><circle cx="12.0002" cy="12" r="0.5" stroke="currentColor"/></svg>

<svg xmlns="http://www.w3.org/2000/svg" fill="none" viewBox="0 0 24 24" width="1em" height="1em"><path stroke="currentColor" d="M15.5 12c0 2.714-.44 5.148-1.136 6.885-.348.87-.75 1.54-1.17 1.986-.42.443-.823.629-1.194.629-.37 0-.774-.186-1.194-.63-.42-.444-.822-1.115-1.17-1.985C8.941 17.148 8.5 14.715 8.5 12c0-2.714.441-5.148 1.136-6.885.348-.87.75-1.54 1.17-1.986.42-.443.824-.629 1.194-.629s.774.186 1.194.63c.42.444.822 1.115 1.17 1.985C15.06 6.852 15.5 9.285 15.5 12Z"/><path stroke="currentColor" d="M13.75 15.031c-2.35 1.357-4.679 2.192-6.53 2.46-.928.133-1.71.12-2.305-.022-.594-.142-.957-.398-1.142-.719-.185-.32-.226-.763-.052-1.348.175-.587.555-1.27 1.134-2.007 1.157-1.47 3.045-3.069 5.395-4.426 2.35-1.357 4.68-2.192 6.531-2.46.927-.133 1.709-.12 2.305.022.594.141.956.398 1.141.719.186.32.227.763.052 1.348-.175.587-.554 1.27-1.134 2.007-1.157 1.47-3.044 3.069-5.395 4.426Z"/><path stroke="currentColor" d="M9.892 14.967c2.223 1.557 4.47 2.592 6.292 3.02.912.213 1.692.269 2.297.18.604-.09.988-.314 1.2-.618.213-.303.293-.74.17-1.338-.123-.6-.442-1.314-.955-2.098-1.025-1.565-2.766-3.323-4.989-4.88-2.223-1.556-4.47-2.591-6.291-3.018-.913-.214-1.692-.27-2.298-.18-.604.089-.988.313-1.2.617-.213.303-.292.74-.17 1.338.124.6.442 1.314.955 2.098 1.025 1.565 2.766 3.323 4.99 4.88Z"/><circle cx="12" cy="12" r=".5" stroke="currentColor"/></svg>
